svg/fluentui-system-icons/ic_fluent_flash_28_regular.svg

<svg width="28" height="28" viewBox="0 0 28 28" fill="none" xmlns="http://www.w3.org/2000/svg">
<path d="M8.4062 2.85167C8.60507 2.33834 9.09898 2 9.6495 2H18.1647C19.0915 2 19.7356 2.92219 19.4166 3.79234L17.3237 9.5H22.1611C23.3393 9.5 23.9385 10.9163 23.118 11.7618L9.78417 25.5031C8.64398 26.6782 6.67825 25.62 7.03116 24.0212L8.69131 16.5H5.91677C4.56971 16.5 3.64292 15.147 4.12953 13.8909L8.4062 2.85167ZM9.76367 3.5L5.52824 14.4328C5.42245 14.7059 5.62393 15 5.91677 15H9.62491C9.85221 15 10.0672 15.1031 10.2096 15.2803C10.352 15.4575 10.4063 15.6897 10.3573 15.9117L8.4959 24.3446C8.48544 24.3919 8.49418 24.4137 8.49978 24.425C8.50838 24.4422 8.52724 24.4646 8.55871 24.4816C8.59019 24.4985 8.61929 24.5019 8.63841 24.4996C8.65086 24.4981 8.67389 24.4934 8.70767 24.4585L21.7671 11H16.2499C16.0049 11 15.7753 10.8803 15.635 10.6795C15.4948 10.4786 15.4614 10.2218 15.5458 9.99181L17.9261 3.5H9.76367Z" fill="#212121"/>
</svg>

<svg xmlns="http://www.w3.org/2000/svg" width="28" height="28"><path d="M8.406 2.852A1.333 1.333 0 0 1 9.65 2h8.516c.927 0 1.57.922 1.252 1.792L17.324 9.5h4.837c1.178 0 1.777 1.416.957 2.262L9.784 25.503c-1.14 1.175-3.106.117-2.753-1.482l1.66-7.521H5.917a1.917 1.917 0 0 1-1.787-2.61L8.406 2.853Zm1.358.648L5.528 14.433a.417.417 0 0 0 .389.567h3.708a.75.75 0 0 1 .732.912l-1.861 8.433c-.01.047-.002.069.004.08a.14.14 0 0 0 .059.057.14.14 0 0 0 .08.018c.012-.002.035-.007.069-.041L21.768 11H16.25a.75.75 0 0 1-.704-1.008l2.38-6.492H9.764Z"/></svg>
